X:142
T:My Heart And Lute,aka. RHu.142
S:R.Hughes MS,1823,Whitchurch,Shrops.
A:Whitchurch, Shropshire
Z:Tony Weatherall 2006
N:untitled in MS
M:2/4
L:1/8
Q:1/4=100
R:Air
K:E
G|GBe>d|fecA|c>B GE|F2zF|!
GBed|f>e cA|cB BA/F/|E2zG|!
B>A FD|c>B GE|BAFD|(cB) zB|!
B<^A Ac|c>B Bd|dce^A|B3A|!
GBed|f>ecA|c>BGE|F2zA|!
GBed|f>ecA|cB BA/F/|E2z|]

